assets/img/group-marker.svg

<svg width="57" height="56" viewBox="0 0 57 56" fill="none" xmlns="http://www.w3.org/2000/svg">
<g clip-path="url(#clip0_6_133)">
<mask id="mask0_6_133" style="mask-type:alpha" maskUnits="userSpaceOnUse" x="0" y="0" width="57" height="56">
<path fill-rule="evenodd" clip-rule="evenodd" d="M1.69626 21.1127C0.744583 24.726 0.501786 28.4946 0.981734 32.2033C1.46168 35.9121 2.65497 39.4883 4.49348 42.7279C6.33199 45.9675 8.7797 48.807 11.6969 51.0842C14.614 53.3614 17.9435 55.0318 21.4953 56L22.7476 51.2453C12.3935 48.5829 4.74219 39.185 4.74219 28C4.74219 25.9784 4.99215 24.0151 5.46286 22.1394L1.69626 21.1127ZM11.6773 11.1243L8.9435 8.34319C11.5435 5.69807 14.6302 3.59985 18.0274 2.16832C21.4245 0.736797 25.0655 0 28.7425 0C32.4195 0 36.0605 0.736794 39.4576 2.16832C42.8547 3.59985 45.9414 5.69806 48.5415 8.34318L45.8074 11.1246C41.457 6.72558 35.4179 4 28.7422 4C22.0666 4 16.0276 6.72545 11.6773 11.1243ZM45.1063 11.8379C40.9365 7.61618 35.1448 5 28.7422 5C22.3397 5 16.5482 7.61605 12.3783 11.8376L13.7805 13.264C17.5893 9.39727 22.8858 7 28.7422 7C34.5987 7 39.8954 9.3974 43.7042 13.2644L45.1063 11.8379ZM52.0216 22.1396L55.7887 21.1127C56.7404 24.726 56.9832 28.4946 56.5033 32.2033C56.0233 35.9121 54.83 39.4883 52.9915 42.7279C51.153 45.9675 48.7053 48.807 45.7881 51.0842C42.871 53.3614 39.5415 55.0318 35.9897 56L34.7373 51.2451C45.0912 48.5826 52.7422 39.1848 52.7422 28C52.7422 25.9784 52.4922 24.0152 52.0216 22.1396ZM34.4826 50.2779C44.4075 47.728 51.7422 38.7205 51.7422 28C51.7422 26.0694 51.5043 24.1944 51.0563 22.4027L49.1258 22.929C49.5285 24.5529 49.7422 26.2515 49.7422 28C49.7422 37.7921 43.0402 46.0188 33.973 48.3433L34.4826 50.2779ZM23.0024 50.278C13.0772 47.7283 5.74219 38.7208 5.74219 28C5.74219 26.0694 5.98006 24.1943 6.42809 22.4025L8.3586 22.9288C7.95589 24.5528 7.74219 26.2515 7.74219 28C7.74219 37.7923 14.4445 46.0191 23.512 48.3435L23.0024 50.278ZM23.7667 47.3762C15.1281 45.1645 8.74219 37.328 8.74219 28C8.74219 26.3425 8.94382 24.7321 9.32389 23.1919L28.7425 28.4854L14.4816 13.9773C18.1099 10.2879 23.1588 8 28.7422 8C34.3257 8 39.3748 10.288 43.0031 13.9776L28.7425 28.4854L48.1605 23.1921C48.5406 24.7322 48.7422 26.3425 48.7422 28C48.7422 37.3278 42.3565 45.1642 33.7182 47.3761L28.7425 28.4854L23.7667 47.3762Z" fill="#42D9AC"/>
</mask>
<g mask="url(#mask0_6_133)">
<path opacity="0.1" d="M56.7422 28C56.7422 12.536 44.2062 0 28.7422 0C13.2782 0 0.742187 12.536 0.742187 28C0.742187 43.464 13.2782 56 28.7422 56C44.2062 56 56.7422 43.464 56.7422 28Z" fill="#D62F0E"/>
<path opacity="0.2" d="M52.7422 28C52.7422 14.7452 41.997 4 28.7422 4C15.4874 4 4.74219 14.7452 4.74219 28C4.74219 41.2548 15.4874 52 28.7422 52C41.997 52 52.7422 41.2548 52.7422 28Z" fill="#D62F0E"/>
<path d="M48.7422 28C48.7422 16.9543 39.7879 8 28.7422 8C17.6965 8 8.74219 16.9543 8.74219 28C8.74219 39.0457 17.6965 48 28.7422 48C39.7879 48 48.7422 39.0457 48.7422 28Z" fill="#D62F0E"/>
</g>
<g clip-path="url(#clip1_6_133)">
<path d="M28.7424 14H36.7422C38.9513 14 40.7422 15.7909 40.7422 18V33.2766C40.7422 34.7626 39.9185 36.1261 38.6031 36.8174L28.7424 42L18.8816 36.8174C17.5662 36.1261 16.7425 34.7626 16.7425 33.2767L16.7423 18.0001C16.7422 15.7909 18.5331 14 20.7423 14H28.7424Z" fill="white"/>
<path d="M28.7427 27H40.7426V33.5278C40.7426 35.0429 39.8865 36.428 38.5314 37.1056L28.7422 42L18.9535 37.1056C17.5984 36.428 16.7424 35.0429 16.7424 33.5278L16.7426 27H28.7427Z" fill="#101B37"/>
<path d="M29.1172 31.3281L26.2422 33.7031V36.25C26.2422 36.3906 26.3516 36.5 26.4922 36.5H28.2422C28.3672 36.5 28.4766 36.3906 28.4766 36.25V34.75C28.4766 34.625 28.6016 34.5 28.7266 34.5H29.7266C29.8672 34.5 29.9766 34.625 29.9766 34.75V36.25C29.9766 36.3906 30.1016 36.5 30.2266 36.5H31.9922C32.1172 36.5 32.2422 36.3906 32.2422 36.25V33.6875L29.3516 31.3281C29.3203 31.2969 29.2734 31.2812 29.2422 31.2812C29.1953 31.2812 29.1484 31.2969 29.1172 31.3281ZM33.6641 32.9375L32.3672 31.8594V29.7031C32.3672 29.5938 32.2734 29.5156 32.1797 29.5156H31.3047C31.1953 29.5156 31.1172 29.5938 31.1172 29.7031V30.8281L29.7109 29.6719C29.5859 29.5781 29.4141 29.5156 29.2422 29.5156C29.0547 29.5156 28.8828 29.5781 28.7578 29.6719L24.8047 32.9375C24.7578 32.9688 24.7266 33.0312 24.7266 33.0781C24.7266 33.125 24.7578 33.1719 24.7734 33.2031L25.1797 33.6875C25.2109 33.7344 25.2578 33.75 25.3203 33.75C25.3672 33.75 25.4141 33.7344 25.4453 33.7031L29.1172 30.6875C29.1484 30.6562 29.1953 30.6406 29.2422 30.6406C29.2734 30.6406 29.3203 30.6562 29.3516 30.6875L33.0234 33.7031C33.0547 33.7344 33.1016 33.75 33.1484 33.75C33.2109 33.75 33.2578 33.7344 33.2891 33.6875L33.6953 33.2031C33.7266 33.1719 33.7422 33.125 33.7422 33.0781C33.7422 33.0312 33.7109 32.9688 33.6641 32.9375Z" fill="white"/>
</g>
</g>
<defs>
<clipPath id="clip0_6_133">
<rect width="56" height="56" fill="white" transform="translate(0.742188)"/>
</clipPath>
<clipPath id="clip1_6_133">
<rect width="24" height="28" fill="white" transform="translate(16.7422 14)"/>
</clipPath>
</defs>
</svg>

<svg width="57" height="56" fill="none" xmlns="http://www.w3.org/2000/svg"><g clip-path="url(#clip0_6_133)"><mask id="a" style="mask-type:alpha" maskUnits="userSpaceOnUse" x="0" y="0" width="57" height="56"><path fill-rule="evenodd" clip-rule="evenodd" d="M1.696 21.113a28.963 28.963 0 00-.714 11.09 28.82 28.82 0 003.511 10.525 28.34 28.34 0 007.204 8.356A27.811 27.811 0 0021.495 56l1.253-4.755C12.393 48.583 4.742 39.185 4.742 28c0-2.022.25-3.985.72-5.86l-3.766-1.027zm9.981-9.989l-2.733-2.78a27.972 27.972 0 019.083-6.176A27.586 27.586 0 0128.742 0c3.677 0 7.318.737 10.716 2.168a27.974 27.974 0 019.084 6.175l-2.735 2.782A23.926 23.926 0 0028.742 4a23.926 23.926 0 00-17.065 7.124zm33.43.714A22.93 22.93 0 0028.741 5a22.93 22.93 0 00-16.364 6.838l1.402 1.426A20.936 20.936 0 0128.742 7a20.936 20.936 0 0114.962 6.264l1.402-1.426zm6.915 10.302l3.767-1.027a28.964 28.964 0 01.714 11.09 28.821 28.821 0 01-3.511 10.525 28.34 28.34 0 01-7.204 8.356A27.811 27.811 0 0135.99 56l-1.253-4.755C45.091 48.583 52.742 39.185 52.742 28c0-2.022-.25-3.985-.72-5.86zm-17.54 28.138c9.925-2.55 17.26-11.557 17.26-22.278 0-1.93-.238-3.806-.686-5.597l-1.93.526c.403 1.624.616 3.323.616 5.071 0 9.792-6.702 18.019-15.769 20.343l.51 1.935zm-11.48 0C13.077 47.728 5.742 38.721 5.742 28c0-1.93.238-3.806.686-5.598l1.93.527A21.047 21.047 0 007.743 28c0 9.792 6.702 18.02 15.77 20.343l-.51 1.935zm.765-2.902C15.128 45.164 8.742 37.328 8.742 28c0-1.657.202-3.268.582-4.808l19.419 5.293-14.261-14.508A19.94 19.94 0 0128.742 8a19.94 19.94 0 0114.261 5.978l-14.26 14.507 19.418-5.293c.38 1.54.581 3.15.581 4.808 0 9.328-6.386 17.164-15.024 19.376l-4.976-18.89-4.975 18.89z" fill="#42D9AC"/></mask><g mask="url(#a)" fill="#D62F0E"><path opacity=".1" d="M56.742 28c0-15.464-12.536-28-28-28s-28 12.536-28 28 12.536 28 28 28 28-12.536 28-28z"/><path opacity=".2" d="M52.742 28c0-13.255-10.745-24-24-24s-24 10.745-24 24 10.745 24 24 24 24-10.745 24-24z"/><path d="M48.742 28c0-11.046-8.954-20-20-20s-20 8.954-20 20 8.954 20 20 20 20-8.954 20-20z"/></g><g clip-path="url(#clip1_6_133)"><path d="M28.742 14h8a4 4 0 014 4v15.277a4 4 0 01-2.139 3.54L28.743 42l-9.861-5.183a4 4 0 01-2.14-3.54V18a4 4 0 014-4h8z" fill="#fff"/><path d="M28.743 27h12v6.528a4 4 0 01-2.212 3.578L28.742 42l-9.789-4.894a4 4 0 01-2.21-3.578V27h12z" fill="#101B37"/><path d="M29.117 31.328l-2.875 2.375v2.547c0 .14.11.25.25.25h1.75c.125 0 .235-.11.235-.25v-1.5c0-.125.125-.25.25-.25h1c.14 0 .25.125.25.25v1.5c0 .14.125.25.25.25h1.765c.125 0 .25-.11.25-.25v-2.563l-2.89-2.359a.17.17 0 00-.11-.047.178.178 0 00-.125.047zm4.547 1.61l-1.297-1.079v-2.156a.19.19 0 00-.187-.187h-.875a.18.18 0 00-.188.187v1.125l-1.406-1.156a.803.803 0 00-.953 0l-3.953 3.265a.186.186 0 00-.078.141c0 .047.03.094.046.125l.407.484c.03.047.078.063.14.063a.177.177 0 00.125-.047l3.672-3.016a.177.177 0 01.125-.046c.031 0 .078.015.11.047l3.671 3.015a.177.177 0 00.125.047c.063 0 .11-.016.141-.063l.406-.484a.177.177 0 00.047-.125.187.187 0 00-.078-.14z" fill="#fff"/></g></g><defs><clipPath id="clip0_6_133"><path fill="#fff" transform="translate(.742)" d="M0 0h56v56H0z"/></clipPath><clipPath id="clip1_6_133"><path fill="#fff" transform="translate(16.742 14)" d="M0 0h24v28H0z"/></clipPath></defs></svg>
